src/assets/projects/icon-title.svg

<svg fill="none" height="16" viewBox="0 0 16 16" width="16" xmlns="http://www.w3.org/2000/svg"><g fill="#777"><path clip-rule="evenodd" d="m13.0256.820761-.0236.548549v.00006l-.0206.48c-.0371-.01504-.0787-.02435-.1245-.02632-1.9505-.03697-3.90097-.07865-5.84901-.12028h-.00006-.00002-.00003c-1.89267-.04045-3.78306-.08085-5.66893-.11683-.24312 0-.32985.21259-.28072.39582-.063636.07991-.08318.19056-.01699.3146.69849 1.33616 1.44874 2.63849 2.26753 3.90688-.34238.67266-.68477 1.34918-1.02715 2.02571-.3629.71706-.72579 1.43412-1.08869 2.14655-.08931.1841.00591.3345.1516.4005.04713.0631.12458.1069.23517.1114 1.83057.0547 3.66578.114 5.50099.1733h.00006.00006.00005c1.83378.0593 3.66754.1185 5.49664.1732l.0077-.0001c-.0525 1.2819-.1039 2.5643-.1541 3.8481-.0185.4924.6503.5837.6688.0912l.0236-.5479c.1964-4.5758.3923-9.13609.571-13.713229.0185-.474221-.6503-.583642-.6688-.09121zm-11.00301 9.420639c1.71299.0517 3.42979.1072 5.1466.1626h.00005.00006.00006c1.81575.0587 3.63154.1174 5.44274.1716.1111-2.69873.2264-5.39533.3423-8.09644-.0134.00088-.0273.00104-.0418.00042-1.8859-.03598-3.77621-.07638-5.66884-.11683h-.00009-.00005-.00006c-1.82554-.03902-3.6532-.07807-5.481-.11326.6587 1.25814 1.38336 2.48339 2.15808 3.676l.00003.00002c.02155.03351.03615.06769.04475.1018.06847.08015.09357.19213.03256.31788-.36289.71245-.72578 1.4295-1.08868 2.14656-.29557.58403-.59114 1.16806-.88671 1.74965z" fill-rule="evenodd"/><path d="m13.002 1.36931.2498.01136v-.00064zm.0236-.548549.2498.010725v-.001333zm-.0236.548609-.2497-.01136v.00064zm-.0206.48-.0938.23173.3284.13293.0152-.35393zm-.1245-.02632.0107-.24984-.006-.00011zm-5.84901-.12028-.00609.24993.00075.00001zm-.00006 0 .0061-.24994-.00242-.00004zm-.00002 0-.00577.24994.00209.00003zm-.00003 0 .00577-.24994-.00043-.00001zm-5.66893-.11683.00477-.25h-.00477zm-.28072.39582.19557.15573.07855-.09866-.03265-.12181zm-.01699.3146.22156-.11582-.001-.00187zm2.26753 3.90688.2228.11341.06523-.12817-.07799-.12082zm-1.02715 2.02571-.22306-.11289zm-1.08869 2.14655-.222811-.1135-.00212.0044zm.1516.4005.20024-.1497-.03848-.0515-.05855-.0265zm.23517.1114-.01018.2498.00271.0001zm5.50099.1733.01249-.2497-.00441-.0002zm.00017 0-.01248.2497.00441.0002zm5.49664.1732-.0074.2501.0095-.0001zm.0077-.0001.2498.0103.0107-.2624-.2626.0021zm-.1541 3.8481-.2498-.0097v.0003zm.6688.0912-.2497-.0107-.0001.0013zm.0236-.5479-.2498-.0107zm.571-13.713229-.2498-.009761v.000008zm-11.67181 9.329429-.22287-.1133-.17853.3513.39385.0118zm5.1466.1626.01248-.2497-.00441-.0001zm.00017 0-.01249.2498.00441.0001zm5.44274.1716-.0075.2499.2471.0074.0102-.247zm.3423-8.09644.2498.01072.0119-.27847-.2781.01829zm-.0418.00042.0107-.24984-.006-.00012zm-5.66884-.11683.00534-.24994-.00044-.00001zm-.00009 0-.00536.24994.00045.00001zm-.00005 0-.00596.24993.0006.00001zm-.00006 0 .00595-.24993-.00061-.00002zm-5.481-.11326.00481-.24995-.42212-.00813.19583.37404zm2.15808 3.676-.20965.13619.02321.03573.03374.02602zm.00003.00002.21027-.13523-.02336-.03633-.0342-.02638zm.04475.1018-.24242.0611.01431.05677.03803.04452zm.03256.31788.22281.11349.00212-.00436zm-1.08868 2.14656-.22306-.11289zm10.3425-7.11172.0236-.548544-.4996-.021449-.0235.548553zm0 .00071v-.00007l-.4995-.02272v.00006zm-.0206.47936.0206-.48-.4995-.02145-.0207.48zm-.385.21273c.0181.00077.0315.00426.0414.00827l.1876-.46346c-.0644-.02607-.1341-.04121-.2076-.04436zm-5.84365-.12012c1.94799.04163 3.89875.08332 5.84955.1203l.0095-.49991c-1.9501-.03696-3.90028-.07864-5.84837-.12027zm-.00081-.00002h.00006l.01219-.49985h-.00006zm.00239.00005h.00003l.00735-.49995h-.00002zm-.00212-.00004h.00003l.01154-.49987h-.00003zm-5.66793-.11681c1.88554.03598 3.77564.07637 5.66836.11682l.01068-.49989c-1.89262-.04044-3.78329-.08085-5.6695-.11684zm-.03448.08113c-.00451-.01683-.00554-.03327-.00402-.0471.00152-.01385.0052-.02203.00731-.02554.00161-.00265.00227-.00285.00286-.00317.00064-.00036.00947-.00527.0331-.00527v-.5c-.20447 0-.370403.09506-.463952.24995-.086738.14361-.097384.31462-.058246.46061zm-.0379.26165c-.00684-.01283-.00962-.02182-.01077-.02697-.00112-.00502-.00093-.00742-.0009-.00779.00004-.00041.00008-.00062.00029-.00112.00026-.00063.00111-.00246.00338-.0053l-.391147-.31146c-.127092.15961-.154078.37794-.041977.58802zm2.25701 3.88899c-.81423-1.26134-1.56069-2.55699-2.25602-3.88712l-.443104.23164c.701644 1.3422 1.455694 2.65119 2.279044 3.92665zm-.43284.02218c-.34254.67295-.68505 1.34974-1.02741 2.02622l.44612.22578c.34241-.67657.68466-1.35284 1.02689-2.02519zm-1.02741 2.02622c-.36292.71711-.72567 1.43388-1.088399 2.14604l.445529.2269c.36307-.7128.72612-1.43015 1.08899-2.14716zm-1.090561 2.15034c-.074004.1526-.079251.3137-.015537.4559.060608.1352.172198.2285.288868.2814l.20641-.4554c-.02903-.0131-.03789-.028-.03899-.0305-.00026-.0006-.00051-.001-.00044-.0031.00008-.0023.00083-.0121.00954-.03zm.621881.3712c-.02448-.001-.03643-.0059-.04042-.0079-.00364-.0018-.00437-.003-.00469-.0034l-.40047.2994c.09737.1303.24855.2043.42522.2115zm5.49889.1732c-1.83517-.0593-3.67068-.1186-5.5016-.1733l-.01494.4998c1.83021.0547 3.66512.114 5.50039.1733zm.00446.0002h-.00005l-.02497.4994h.00005zm.00006 0h-.00006l-.02497.4994h.00006zm.00006 0h-.00006l-.02497.4994h.00006zm5.49165.173c-1.8288-.0547-3.66224-.1139-5.49606-.1732l-.01615.4998c1.83372.0592 3.66781.1185 5.49731.1732zm-.0019-.0002-.0076.0001.0041.5.0076-.0001zm.0979 4.1079c.0501-1.2836.1015-2.5659.154-3.8476l-.4996-.0205c-.0525 1.282-.1039 2.5646-.1541 3.8486zm.1691.072c-.0024.0636-.0226.078-.0231.0784-.004.0033-.0167.0104-.0416.007-.0248-.0033-.0513-.0165-.0708-.0391-.0171-.0199-.036-.0554-.0336-.1187l-.4997-.0188c-.0143.3802.2474.6326.5366.6721.1422.0194.2991-.0122.4251-.115.1295-.1056.1999-.2644.2068-.4471zm.0236-.5492-.0235.5479.4995.0215.0235-.548zm.571-13.712282c-.1787 4.576572-.3745 9.136382-.571 13.712282l.4995.0214c.1965-4.5757.3924-9.13647.5711-13.714175zm-.1692-.072065c.0013-.033113.0076-.052023.0118-.061193.0041-.008682.0075-.011591.0087-.01253.0022-.001729.0142-.009332.0409-.005324.0266.003996.0548.018391.0751.041604.0177.020325.0349.053523.0327.1095l.4996.019523c.0147-.375795-.2515-.622838-.5332-.665096-.1405-.021071-.298.006663-.4259.108095-.1318.104616-.2025.263849-.2093.446638zm-11.26036 9.661047c1.71269.0518 3.42922.1072 5.14607.1627l.01615-.4997c-1.71676-.0555-3.43383-.111-5.14713-.16273zm5.14166.1625h.00006l.02497-.4994h-.00006zm.00006 0h.00006l.02496-.4993-.00005-.0001zm.00006 0h.00005l.02497-.4993h-.00006zm.00446.0002c1.8157.0587 3.63172.1174 5.44332.1716l.015-.4998c-1.8109-.0542-3.62637-.1129-5.44217-.1715zm5.70062-.068c.1111-2.69851.2263-5.39492.3423-8.09602l-.4996-.02144c-.1159 2.70112-.2311 5.3979-.3423 8.09686zm.0761-8.3562c-.0041.00026-.0089.00036-.0147.00011l-.0214.49954c.0232.00099.0462.00076.0689-.00073zm-.0207-.00008c-1.8855-.03597-3.77552-.07636-5.6682-.11681l-.01069.49988c1.89259.04045 3.78319.08086 5.66939.11684zm-5.66864-.11682h-.00009l-.00981.4999h.00009zm.00036.00001h-.00005l-.01071.49988h.00005zm.00055.00001h-.00006l-.01191.49986h.00006zm-.00067-.00002c-1.82549-.03901-3.65342-.07807-5.48153-.11326l-.00962.49991c1.82749.03517 3.65489.07423 5.48046.11324zm-5.70782.25265c.6627 1.26578 1.3914 2.49777 2.16991 3.69623l.4193-.27238c-.77092-1.18676-1.49154-2.40526-2.14625-3.65577zm2.22686 3.75798.00003.00003.30541-.39589-.00004-.00003zm-.05753-.06269c.0073.01136.01081.0206.01259.02767l.48484-.1222c-.01541-.06115-.04111-.12028-.0769-.17593zm.5125.39358c.10536-.21717.06412-.43544-.06741-.5894l-.38016.32478c.0064.00749.007.01164.00714.01269.00013.00097.00036.0035-.00047.00822-.00084.00483-.00305.01329-.00895.02546zm-1.09054 2.15032c.36291-.71711.72566-1.43387 1.08838-2.14598l-.44553-.22693c-.36307.71278-.72611 1.43012-1.08898 2.14713zm-.88692 1.74996c.29569-.58174.59136-1.16596.88692-1.74996l-.44613-.22578c-.29559.58406-.59106 1.16791-.88652 1.74924z"/></g></svg>

<svg width="16" height="16" viewBox="0 0 16 16" fill="none" xmlns="http://www.w3.org/2000/svg">
<path fill-rule="evenodd" clip-rule="evenodd" d="M13.0256 0.820761L13.002 1.36931L13.002 1.36937L12.9814 1.84937C12.9443 1.83433 12.9027 1.82502 12.8569 1.82305C10.9064 1.78608 8.95593 1.7444 7.00789 1.70277L7.00783 1.70277L7.00781 1.70277L7.00778 1.70277C5.11511 1.66232 3.22472 1.62192 1.33885 1.58594C1.09573 1.58594 1.009 1.79853 1.05813 1.98176C0.994494 2.06167 0.97495 2.17232 1.04114 2.29636C1.73963 3.63252 2.48988 4.93485 3.30867 6.20324C2.96629 6.8759 2.6239 7.55242 2.28152 8.22895C1.91862 8.94601 1.55573 9.66307 1.19283 10.3755C1.10352 10.5596 1.19874 10.71 1.34443 10.776C1.39156 10.8391 1.46901 10.8829 1.5796 10.8874C3.41017 10.9421 5.24538 11.0014 7.08059 11.0607L7.08065 11.0607L7.08071 11.0607L7.08076 11.0607C8.91454 11.12 10.7483 11.1792 12.5774 11.2339L12.5851 11.2338C12.5326 12.5157 12.4812 13.7981 12.431 15.0819C12.4125 15.5743 13.0813 15.6656 13.0998 15.1731L13.1234 14.6252C13.3198 10.0494 13.5157 5.48911 13.6944 0.911971C13.7129 0.43775 13.0441 0.328329 13.0256 0.820761ZM2.02259 10.2414C3.73558 10.2931 5.45238 10.3486 7.16919 10.404L7.16924 10.404L7.1693 10.404L7.16936 10.404C8.98511 10.4627 10.8009 10.5214 12.6121 10.5756C12.7232 7.87687 12.8385 5.18027 12.9544 2.47916C12.941 2.48004 12.9271 2.4802 12.9126 2.47958C11.0267 2.4436 9.13639 2.4032 7.24376 2.36275L7.24367 2.36275L7.24362 2.36275L7.24356 2.36275C5.41802 2.32373 3.59036 2.28468 1.76256 2.24949C2.42126 3.50763 3.14592 4.73288 3.92064 5.92549L3.92067 5.92551C3.94222 5.95902 3.95682 5.9932 3.96542 6.02731C4.03389 6.10746 4.05899 6.21944 3.99798 6.34519C3.63509 7.05764 3.2722 7.77469 2.9093 8.49175C2.61373 9.07578 2.31816 9.65981 2.02259 10.2414Z" fill="#777777"/>
<path d="M13.002 1.36931L13.2518 1.38067L13.2518 1.38003L13.002 1.36931ZM13.0256 0.820761L13.2754 0.831486L13.2754 0.830153L13.0256 0.820761ZM13.002 1.36937L12.7523 1.35801L12.7523 1.35865L13.002 1.36937ZM12.9814 1.84937L12.8876 2.0811L13.216 2.21403L13.2312 1.8601L12.9814 1.84937ZM12.8569 1.82305L12.8676 1.57321L12.8616 1.5731L12.8569 1.82305ZM7.00789 1.70277L7.0018 1.9527L7.00255 1.95271L7.00789 1.70277ZM7.00783 1.70277L7.01393 1.45283L7.01151 1.45279L7.00783 1.70277ZM7.00781 1.70277L7.00204 1.95271L7.00413 1.95274L7.00781 1.70277ZM7.00778 1.70277L7.01355 1.45283L7.01312 1.45282L7.00778 1.70277ZM1.33885 1.58594L1.34362 1.33594H1.33885V1.58594ZM1.05813 1.98176L1.2537 2.13749L1.33225 2.03883L1.2996 1.91702L1.05813 1.98176ZM1.04114 2.29636L1.2627 2.18054L1.2617 2.17867L1.04114 2.29636ZM3.30867 6.20324L3.53147 6.31665L3.5967 6.18848L3.51871 6.06766L3.30867 6.20324ZM2.28152 8.22895L2.05846 8.11606H2.05846L2.28152 8.22895ZM1.19283 10.3755L0.970019 10.262L0.967899 10.2664L1.19283 10.3755ZM1.34443 10.776L1.54467 10.6263L1.50619 10.5748L1.44764 10.5483L1.34443 10.776ZM1.5796 10.8874L1.56942 11.1372L1.57213 11.1373L1.5796 10.8874ZM7.08059 11.0607L7.09308 10.811L7.08867 10.8108L7.08059 11.0607ZM7.08076 11.0607L7.06828 11.3104L7.07269 11.3106L7.08076 11.0607ZM12.5774 11.2339L12.57 11.484L12.5795 11.4839L12.5774 11.2339ZM12.5851 11.2338L12.8349 11.2441L12.8456 10.9817L12.583 10.9838L12.5851 11.2338ZM12.431 15.0819L12.1812 15.0722L12.1812 15.0725L12.431 15.0819ZM13.0998 15.1731L12.8501 15.1624L12.85 15.1637L13.0998 15.1731ZM13.1234 14.6252L12.8736 14.6145V14.6145L13.1234 14.6252ZM13.6944 0.911971L13.4446 0.90221V0.902218L13.6944 0.911971ZM2.02259 10.2414L1.79972 10.1281L1.62119 10.4794L2.01504 10.4912L2.02259 10.2414ZM7.16919 10.404L7.18167 10.1543L7.17726 10.1542L7.16919 10.404ZM7.16936 10.404L7.15687 10.6538L7.16128 10.6539L7.16936 10.404ZM12.6121 10.5756L12.6046 10.8255L12.8517 10.8329L12.8619 10.5859L12.6121 10.5756ZM12.9544 2.47916L13.2042 2.48988L13.2161 2.21141L12.938 2.2297L12.9544 2.47916ZM12.9126 2.47958L12.9233 2.22974L12.9173 2.22962L12.9126 2.47958ZM7.24376 2.36275L7.2491 2.11281L7.24866 2.1128L7.24376 2.36275ZM7.24367 2.36275L7.23831 2.61269L7.23876 2.6127L7.24367 2.36275ZM7.24362 2.36275L7.23766 2.61268L7.23826 2.61269L7.24362 2.36275ZM7.24356 2.36275L7.24951 2.11282L7.2489 2.1128L7.24356 2.36275ZM1.76256 2.24949L1.76737 1.99954L1.34525 1.99141L1.54108 2.36545L1.76256 2.24949ZM3.92064 5.92549L3.71099 6.06168L3.7342 6.09741L3.76794 6.12343L3.92064 5.92549ZM3.92067 5.92551L4.13094 5.79028L4.10758 5.75395L4.07338 5.72757L3.92067 5.92551ZM3.96542 6.02731L3.723 6.08841L3.73731 6.14518L3.77534 6.1897L3.96542 6.02731ZM3.99798 6.34519L4.22079 6.45868L4.22291 6.45432L3.99798 6.34519ZM2.9093 8.49175L2.68624 8.37886L2.9093 8.49175ZM13.2518 1.38003L13.2754 0.831486L12.7758 0.810037L12.7523 1.35859L13.2518 1.38003ZM13.2518 1.38074L13.2518 1.38067L12.7523 1.35795L12.7523 1.35801L13.2518 1.38074ZM13.2312 1.8601L13.2518 1.3801L12.7523 1.35865L12.7316 1.83865L13.2312 1.8601ZM12.8462 2.07283C12.8643 2.0736 12.8777 2.07709 12.8876 2.0811L13.0752 1.61764C13.0108 1.59157 12.9411 1.57643 12.8676 1.57328L12.8462 2.07283ZM7.00255 1.95271C8.95054 1.99434 10.9013 2.03603 12.8521 2.07301L12.8616 1.5731C10.9115 1.53614 8.96132 1.49446 7.01323 1.45283L7.00255 1.95271ZM7.00174 1.95269L7.0018 1.95269L7.01399 1.45284L7.01393 1.45284L7.00174 1.95269ZM7.00413 1.95274L7.00416 1.95274L7.01151 1.45279L7.01149 1.45279L7.00413 1.95274ZM7.00201 1.9527L7.00204 1.9527L7.01358 1.45283L7.01355 1.45283L7.00201 1.9527ZM1.33408 1.83589C3.21962 1.87187 5.10972 1.91226 7.00244 1.95271L7.01312 1.45282C5.1205 1.41238 3.22983 1.37197 1.34362 1.33598L1.33408 1.83589ZM1.2996 1.91702C1.29509 1.90019 1.29406 1.88375 1.29558 1.86992C1.2971 1.85607 1.30078 1.84789 1.30289 1.84438C1.3045 1.84173 1.30516 1.84153 1.30575 1.84121C1.30639 1.84085 1.31522 1.83594 1.33885 1.83594V1.33594C1.13438 1.33594 0.968447 1.431 0.874898 1.58589C0.78816 1.7295 0.777514 1.90051 0.816652 2.0465L1.2996 1.91702ZM1.2617 2.17867C1.25486 2.16584 1.25208 2.15685 1.25093 2.1517C1.24981 2.14668 1.25 2.14428 1.25003 2.14391C1.25007 2.1435 1.25011 2.14329 1.25032 2.14279C1.25058 2.14216 1.25143 2.14033 1.2537 2.13749L0.862553 1.82603C0.735461 1.98564 0.708475 2.20397 0.820576 2.41405L1.2617 2.17867ZM3.51871 6.06766C2.70448 4.80632 1.95802 3.51067 1.26269 2.18054L0.819586 2.41218C1.52123 3.75438 2.27528 5.06337 3.09863 6.33883L3.51871 6.06766ZM3.08587 6.08984C2.74333 6.76279 2.40082 7.43958 2.05846 8.11606L2.50458 8.34184C2.84699 7.66527 3.18924 6.989 3.53147 6.31665L3.08587 6.08984ZM2.05846 8.11606C1.69554 8.83317 1.33279 9.54994 0.970061 10.2621L1.41559 10.489C1.77866 9.7762 2.14171 9.05885 2.50458 8.34184L2.05846 8.11606ZM0.967899 10.2664C0.893895 10.419 0.888648 10.5801 0.952362 10.7223C1.01297 10.8575 1.12456 10.9508 1.24123 11.0037L1.44764 10.5483C1.41861 10.5352 1.40975 10.5203 1.40865 10.5178C1.40839 10.5172 1.40814 10.5168 1.40821 10.5147C1.40829 10.5124 1.40904 10.5026 1.41775 10.4847L0.967899 10.2664ZM1.58978 10.6376C1.5653 10.6366 1.55335 10.6317 1.54936 10.6297C1.54572 10.6279 1.54499 10.6267 1.54467 10.6263L1.1442 10.9257C1.24157 11.056 1.39275 11.13 1.56942 11.1372L1.58978 10.6376ZM7.08867 10.8108C5.2535 10.7515 3.41799 10.6922 1.58707 10.6375L1.57213 11.1373C3.40234 11.192 5.23725 11.2513 7.07252 11.3106L7.08867 10.8108ZM7.09313 10.811L7.09308 10.811L7.06811 11.3104L7.06816 11.3104L7.09313 10.811ZM7.09319 10.811L7.09313 10.811L7.06816 11.3104L7.06822 11.3104L7.09319 10.811ZM7.09325 10.811L7.09319 10.811L7.06822 11.3104L7.06828 11.3104L7.09325 10.811ZM12.5849 10.984C10.7561 10.9293 8.92266 10.8701 7.08884 10.8108L7.07269 11.3106C8.90641 11.3698 10.7405 11.4291 12.57 11.4838L12.5849 10.984ZM12.583 10.9838L12.5754 10.9839L12.5795 11.4839L12.5871 11.4838L12.583 10.9838ZM12.6809 15.0917C12.731 13.8081 12.7824 12.5258 12.8349 11.2441L12.3353 11.2236C12.2828 12.5056 12.2314 13.7882 12.1812 15.0722L12.6809 15.0917ZM12.85 15.1637C12.8476 15.2273 12.8274 15.2417 12.8269 15.2421C12.8229 15.2454 12.8102 15.2525 12.7853 15.2491C12.7605 15.2458 12.734 15.2326 12.7145 15.21C12.6974 15.1901 12.6785 15.1546 12.6809 15.0913L12.1812 15.0725C12.1669 15.4527 12.4286 15.7051 12.7178 15.7446C12.86 15.764 13.0169 15.7324 13.1429 15.6296C13.2724 15.524 13.3428 15.3652 13.3497 15.1825L12.85 15.1637ZM12.8736 14.6145L12.8501 15.1624L13.3496 15.1839L13.3731 14.6359L12.8736 14.6145ZM13.4446 0.902218C13.2659 5.47879 13.0701 10.0386 12.8736 14.6145L13.3731 14.6359C13.5696 10.0602 13.7655 5.49943 13.9442 0.921725L13.4446 0.902218ZM13.2754 0.830153C13.2767 0.79704 13.283 0.77813 13.2872 0.76896C13.2913 0.760278 13.2947 0.757369 13.2959 0.75643C13.2981 0.754701 13.3101 0.747098 13.3368 0.751106C13.3634 0.755102 13.3916 0.769497 13.4119 0.79271C13.4296 0.813035 13.4468 0.846233 13.4446 0.90221L13.9442 0.921733C13.9589 0.545938 13.6927 0.298895 13.411 0.256637C13.2705 0.235566 13.113 0.2633 12.9851 0.364732C12.8533 0.469348 12.7826 0.628581 12.7758 0.81137L13.2754 0.830153ZM2.01504 10.4912C3.72773 10.543 5.44426 10.5984 7.16111 10.6539L7.17726 10.1542C5.4605 10.0987 3.74343 10.0432 2.03013 9.99147L2.01504 10.4912ZM7.1567 10.6537L7.15676 10.6537L7.18173 10.1543L7.18167 10.1543L7.1567 10.6537ZM7.15676 10.6537L7.15682 10.6537L7.18178 10.1544L7.18173 10.1543L7.15676 10.6537ZM7.15682 10.6537L7.15687 10.6537L7.18184 10.1544L7.18178 10.1544L7.15682 10.6537ZM7.16128 10.6539C8.97698 10.7126 10.793 10.7713 12.6046 10.8255L12.6196 10.3257C10.8087 10.2715 8.99323 10.2128 7.17743 10.1542L7.16128 10.6539ZM12.8619 10.5859C12.973 7.88739 13.0882 5.19098 13.2042 2.48988L12.7046 2.46844C12.5887 5.16956 12.4735 7.86634 12.3623 10.5653L12.8619 10.5859ZM12.938 2.2297C12.9339 2.22996 12.9291 2.23006 12.9233 2.22981L12.9019 2.72935C12.9251 2.73034 12.9481 2.73011 12.9708 2.72862L12.938 2.2297ZM12.9173 2.22962C11.0318 2.19365 9.14178 2.15326 7.2491 2.11281L7.23841 2.61269C9.131 2.65314 11.0216 2.69355 12.9078 2.72953L12.9173 2.22962ZM7.24866 2.1128L7.24857 2.1128L7.23876 2.6127L7.23885 2.6127L7.24866 2.1128ZM7.24902 2.11281L7.24897 2.11281L7.23826 2.61269L7.23831 2.61269L7.24902 2.11281ZM7.24957 2.11282L7.24951 2.11282L7.2376 2.61268L7.23766 2.61268L7.24957 2.11282ZM7.2489 2.1128C5.42341 2.07379 3.59548 2.03473 1.76737 1.99954L1.75775 2.49945C3.58524 2.53462 5.41264 2.57368 7.23821 2.61269L7.2489 2.1128ZM1.54108 2.36545C2.20378 3.63123 2.93248 4.86322 3.71099 6.06168L4.13029 5.7893C3.35937 4.60254 2.63875 3.38404 1.98404 2.13353L1.54108 2.36545ZM3.76794 6.12343L3.76797 6.12346L4.07338 5.72757L4.07334 5.72754L3.76794 6.12343ZM3.71041 6.06074C3.71771 6.0721 3.72122 6.08134 3.723 6.08841L4.20784 5.96621C4.19243 5.90506 4.16673 5.84593 4.13094 5.79028L3.71041 6.06074ZM4.22291 6.45432C4.32827 6.23715 4.28703 6.01888 4.1555 5.86492L3.77534 6.1897C3.78174 6.19719 3.78234 6.20134 3.78248 6.20239C3.78261 6.20336 3.78284 6.20589 3.78201 6.21061C3.78117 6.21544 3.77896 6.2239 3.77306 6.23607L4.22291 6.45432ZM3.13237 8.60464C3.49528 7.88753 3.85803 7.17077 4.22075 6.45866L3.77522 6.23173C3.41215 6.94451 3.04911 7.66185 2.68624 8.37886L3.13237 8.60464ZM2.24545 10.3546C2.54114 9.77286 2.83681 9.18864 3.13237 8.60464L2.68624 8.37886C2.39065 8.96292 2.09518 9.54677 1.79972 10.1281L2.24545 10.3546Z" fill="#777777"/>
</svg>
